img/our_clients/client_6.svg

<svg width="175" height="90" viewBox="0 0 175 90" fill="none" xmlns="http://www.w3.org/2000/svg">
<rect x="0.5" y="0.5" width="174" height="89" rx="3.5" stroke="#AFB1B8"/>
<path d="M87.7404 43.6885C87.3224 43.0973 87.1225 42.3987 87.1699 41.6954V38.8056C87.1699 37.9198 87.359 37.2466 87.7372 36.7861C88.1154 36.3255 88.7649 36.0962 89.6858 36.0982C90.5512 36.0982 91.1654 36.2941 91.5287 36.6861C91.9249 37.1862 92.1176 37.7978 92.0735 38.4147V39.0937H90.5255V38.4058C90.531 38.1807 90.516 37.9555 90.4807 37.7326C90.4584 37.5803 90.3804 37.4393 90.2595 37.3328C90.1006 37.2181 89.9003 37.1624 89.6987 37.177C89.4866 37.1625 89.2762 37.2212 89.1089 37.3417C88.9741 37.4596 88.8842 37.6142 88.8525 37.7826C88.8081 38.0185 88.7878 38.2576 88.7916 38.497V42.0041C88.7672 42.3424 88.8355 42.6809 88.9904 42.9889C89.0673 43.093 89.1743 43.1756 89.2993 43.2275C89.4243 43.2794 89.5625 43.2985 89.6987 43.2828C89.897 43.2978 90.0937 43.2408 90.2467 43.1241C90.3728 43.0093 90.454 42.8594 90.4775 42.6978C90.5136 42.4652 90.5297 42.2302 90.5255 41.9952V41.2838H92.0735V41.9335C92.117 42.5765 91.9289 43.2148 91.5383 43.7502C91.1825 44.1794 90.5768 44.394 89.6858 44.394C88.7949 44.394 88.1218 44.1647 87.7404 43.6885Z" fill="#AFB1B8"/>
<path d="M94.1856 43.7179C93.7946 43.2681 93.5991 42.6126 93.5991 41.7454V38.7057C93.5991 37.8473 93.7946 37.1976 94.1856 36.7567C94.5766 36.3157 95.2304 36.0962 96.147 36.0982C97.0572 36.0982 97.7078 36.3177 98.0988 36.7567C98.4898 37.1976 98.6885 37.8473 98.6885 38.7057V41.7454C98.6885 42.6038 98.4898 43.2623 98.0924 43.715C97.695 44.1677 97.0476 44.394 96.147 44.394C95.2464 44.394 94.5798 44.1647 94.1856 43.7179ZM96.8681 42.9889C97.0081 42.7071 97.0719 42.3985 97.054 42.0893V38.3676C97.072 38.0644 97.0093 37.7617 96.8713 37.4857C96.7928 37.3793 96.6832 37.2954 96.5551 37.2434C96.4271 37.1914 96.2856 37.1735 96.147 37.1917C96.0079 37.174 95.8662 37.1921 95.7377 37.244C95.6093 37.2959 95.4991 37.3796 95.4195 37.4857C95.2786 37.7609 95.2147 38.064 95.2336 38.3676V42.1069C95.2141 42.4162 95.278 42.7252 95.4195 43.0065C95.5097 43.1013 95.6211 43.1773 95.746 43.2294C95.8709 43.2815 96.0066 43.3084 96.1438 43.3084C96.281 43.3084 96.4167 43.2815 96.5416 43.2294C96.6665 43.1773 96.7779 43.1013 96.8681 43.0065V42.9889Z" fill="#AFB1B8"/>
<path d="M100.551 36.1868H102.217L103.47 41.795L104.752 36.1868H106.374L106.537 44.2817H105.339L105.211 38.6558L103.973 44.2817H103.012L101.73 38.6352L101.611 44.2817H100.4L100.551 36.1868Z" fill="#AFB1B8"/>
<path d="M108.406 36.1868H111.002C112.498 36.1868 113.245 36.953 113.245 38.4853C113.245 39.9531 112.458 40.6859 110.883 40.684H109.999V44.2817H108.396L108.406 36.1868ZM110.624 39.6464C110.782 39.6648 110.943 39.6515 111.095 39.6073C111.247 39.5632 111.387 39.4893 111.505 39.3907C111.689 39.1173 111.77 38.7962 111.736 38.4765C111.744 38.2296 111.719 37.9827 111.659 37.7417C111.636 37.6612 111.596 37.5857 111.541 37.5196C111.486 37.4535 111.417 37.3981 111.339 37.3566C111.116 37.2588 110.87 37.2143 110.624 37.2273H110.002V39.6464H110.624Z" fill="#AFB1B8"/>
<path d="M115.556 36.1868H117.277L119.043 44.2817H117.549L117.2 42.4153H115.665L115.306 44.2817H113.79L115.556 36.1868ZM117.027 41.4776L116.428 38.0797L115.828 41.4776H117.027Z" fill="#AFB1B8"/>
<path d="M120.469 36.1868H121.591L123.738 40.8045V36.1868H125.068V44.2817H124.001L121.841 39.4612V44.2817H120.466L120.469 36.1868Z" fill="#AFB1B8"/>
<path d="M128.184 41.1954L126.398 36.1985H127.902L128.991 39.4083L130.014 36.1985H131.485L129.722 41.1954V44.2817H128.184V41.1954Z" fill="#AFB1B8"/>
<path d="M90.2146 47.8213V48.2446H88.907V51.5339H88.3589V48.2446H87.0449V47.8213H90.2146Z" fill="#AFB1B8"/>
<path d="M94.3141 51.5342H93.891C93.8481 51.5366 93.8057 51.524 93.7724 51.4989C93.7404 51.4774 93.7159 51.4477 93.7019 51.4137L93.3238 50.5318H91.5097L91.1316 51.4137C91.1208 51.4505 91.1011 51.4847 91.0739 51.5136C91.0403 51.5382 90.9982 51.5508 90.9553 51.5489H90.5322L92.1347 47.8362H92.6924L94.3141 51.5342ZM91.6604 50.1555H93.1731L92.5321 48.6446C92.4848 48.5303 92.4452 48.4135 92.4135 48.2948C92.3911 48.3653 92.3719 48.4329 92.3526 48.4917L92.295 48.6475L91.6604 50.1555Z" fill="#AFB1B8"/>
<path d="M97.0766 51.1694C97.177 51.1743 97.2775 51.1743 97.3779 51.1694C97.4645 51.1612 97.5503 51.1465 97.6343 51.1253C97.7128 51.1077 97.7899 51.0851 97.865 51.0577C97.9356 51.0313 98.0061 50.9989 98.0798 50.9666V50.1317H97.4388C97.4229 50.1325 97.4071 50.1303 97.3922 50.1253C97.3773 50.1202 97.3637 50.1124 97.3523 50.1023C97.3417 50.0939 97.3334 50.0835 97.3279 50.0718C97.3223 50.0601 97.3197 50.0474 97.3202 50.0347V49.7495H98.5637V51.1724C98.4622 51.239 98.355 51.298 98.2432 51.3488C98.129 51.4005 98.0099 51.4428 97.8875 51.4752C97.7564 51.5105 97.6224 51.5361 97.4869 51.5516C97.3315 51.5674 97.1753 51.5753 97.0189 51.5751C96.7425 51.5773 96.4683 51.5303 96.2113 51.437C95.9714 51.3485 95.7534 51.2165 95.5703 51.0489C95.3919 50.8796 95.2514 50.6799 95.1569 50.461C95.0559 50.2149 95.0059 49.9537 95.0095 49.6907C95.0061 49.4262 95.055 49.1632 95.1537 48.9146C95.2459 48.6946 95.3866 48.4944 95.5671 48.3267C95.75 48.1597 95.9681 48.0286 96.2081 47.9416C96.4825 47.8469 96.7738 47.8 97.067 47.8034C97.2162 47.8032 97.3652 47.814 97.5125 47.8357C97.6428 47.8552 97.7706 47.8867 97.8939 47.9298C98.006 47.9684 98.1134 48.0177 98.2144 48.0768C98.3126 48.1348 98.4058 48.1997 98.4932 48.2708L98.3394 48.5001C98.3273 48.5211 98.3094 48.5387 98.2874 48.5511C98.2654 48.5635 98.2402 48.5703 98.2144 48.5707C98.1789 48.5696 98.1445 48.5594 98.115 48.5413C98.067 48.5178 98.0157 48.4884 97.958 48.4531C97.8898 48.4139 97.818 48.3804 97.7433 48.3531C97.6477 48.318 97.5491 48.2905 97.4484 48.2708C97.3142 48.2481 97.1779 48.2373 97.0414 48.2385C96.8299 48.2363 96.62 48.2713 96.4228 48.3414C96.2445 48.407 96.0838 48.5073 95.9517 48.6354C95.8189 48.7688 95.7174 48.9259 95.6536 49.0969C95.5105 49.499 95.5105 49.9324 95.6536 50.3345C95.7238 50.5091 95.833 50.6684 95.9741 50.802C96.1056 50.9293 96.2651 51.0295 96.4421 51.0959C96.6458 51.1601 96.8619 51.1851 97.0766 51.1694Z" fill="#AFB1B8"/>
<path d="M102.185 51.1106H103.935V51.5339H101.65V47.8213H102.198L102.185 51.1106Z" fill="#AFB1B8"/>
<path d="M105.756 51.5339H105.208V47.8213H105.756V51.5339Z" fill="#AFB1B8"/>
<path d="M107.794 47.8387C107.826 47.8558 107.855 47.8788 107.877 47.9063L110.22 50.705C110.217 50.6609 110.217 50.6167 110.22 50.5727C110.22 50.5315 110.22 50.4904 110.22 50.4522V47.8064H110.698V51.534H110.422C110.381 51.537 110.34 51.5299 110.303 51.5134C110.27 51.4949 110.241 51.471 110.217 51.4428L107.877 48.6472C107.877 48.6913 107.877 48.7324 107.877 48.7736C107.877 48.8147 107.877 48.8529 107.877 48.8882V51.534H107.419V47.8211H107.704C107.735 47.8212 107.766 47.8272 107.794 47.8387Z" fill="#AFB1B8"/>
<path d="M114.732 47.8213V48.2299H112.79V49.4557H114.364V49.8496H112.79V51.1165H114.732V51.5251H112.226V47.8213H114.732Z" fill="#AFB1B8"/>
<path d="M57.3035 24.8931L81.6385 31.2307V53.439L57.3035 47.1042V24.8931ZM55.7427 23V48.1831L83.196 55.335V30.1548L55.7427 23Z" fill="#AFB1B8"/>
<path d="M70.4565 67.0251L43 59.8674V34.6873L70.4565 41.8421V67.0251Z" fill="#AFB1B8"/>
<path d="M56.1978 24.6079L80.2155 30.8661L70.0014 40.2373L45.9806 33.9761L56.1978 24.6079ZM55.7427 23L43 34.6875L70.4565 41.8423L83.196 30.1548L55.7427 23Z" fill="#AFB1B8"/>
<path d="M72.0015 65.6084L83.1962 55.338L72.0015 52.4192V65.6084Z" fill="#AFB1B8"/>
</svg>

<svg width="175" height="90" fill="none" xmlns="http://www.w3.org/2000/svg"><rect x=".5" y=".5" width="174" height="89" rx="3.5" stroke="#AFB1B8"/><path d="M87.74 43.688a3.085 3.085 0 01-.57-1.993v-2.89c0-.885.189-1.558.567-2.019.378-.46 1.028-.69 1.949-.688.865 0 1.48.196 1.843.588.396.5.589 1.112.544 1.729v.679h-1.547v-.688c.005-.225-.01-.45-.045-.673a.662.662 0 00-.221-.4.856.856 0 00-.561-.156.906.906 0 00-.59.165.779.779 0 00-.256.44 3.555 3.555 0 00-.061.715v3.507c-.025.338.043.677.198.985a.731.731 0 00.31.239.804.804 0 00.399.055.806.806 0 00.548-.159.717.717 0 00.23-.426c.037-.233.053-.468.048-.703v-.711h1.548v.65a2.76 2.76 0 01-.535 1.816c-.355.43-.961.644-1.852.644-.891 0-1.564-.23-1.946-.706zM94.186 43.718c-.391-.45-.587-1.105-.587-1.973v-3.04c0-.858.196-1.507.587-1.948.39-.441 1.044-.66 1.961-.659.91 0 1.56.22 1.952.659.39.44.59 1.09.59 1.949v3.04c0 .858-.2 1.516-.597 1.969-.397.453-1.044.679-1.945.679-.9 0-1.567-.23-1.961-.676zm2.682-.73c.14-.28.204-.59.186-.899v-3.721a1.738 1.738 0 00-.183-.882.735.735 0 00-.316-.243.808.808 0 00-.408-.051.82.82 0 00-.41.052.746.746 0 00-.317.242 1.7 1.7 0 00-.186.882v3.739c-.02.31.044.618.186.9a.96.96 0 00.326.222 1.035 1.035 0 00.796 0 .96.96 0 00.326-.222v-.018zM100.551 36.187h1.666l1.253 5.608 1.282-5.608h1.622l.163 8.095h-1.198l-.128-5.626-1.238 5.626h-.961l-1.282-5.647-.119 5.647H100.4l.151-8.095zM108.406 36.187h2.596c1.496 0 2.243.766 2.243 2.298 0 1.468-.787 2.2-2.362 2.199h-.884v3.598h-1.603l.01-8.095zm2.218 3.46c.158.018.319.005.471-.04a1.13 1.13 0 00.41-.216c.184-.274.265-.595.231-.914a2.679 2.679 0 00-.077-.735.609.609 0 00-.118-.222.675.675 0 00-.202-.163 1.577 1.577 0 00-.715-.13h-.622v2.42h.622zM115.556 36.187h1.721l1.766 8.095h-1.494l-.349-1.867h-1.535l-.359 1.867h-1.516l1.766-8.095zm1.471 5.29l-.599-3.397-.6 3.398h1.199zM120.469 36.187h1.122l2.147 4.617v-4.617h1.33v8.095h-1.067l-2.16-4.82v4.82h-1.375l.003-8.095zM128.184 41.195l-1.786-4.996h1.504l1.089 3.21 1.023-3.21h1.471l-1.763 4.996v3.087h-1.538v-3.087zM90.215 47.821v.424h-1.308v3.289h-.548v-3.29h-1.314v-.423h3.17zM94.314 51.534h-.423a.18.18 0 01-.119-.035.19.19 0 01-.07-.085l-.378-.882H91.51l-.378.882a.248.248 0 01-.058.1.187.187 0 01-.119.035h-.423l1.603-3.713h.557l1.622 3.698zm-2.654-1.378h1.513l-.64-1.511a2.812 2.812 0 01-.12-.35l-.06.197-.058.156-.635 1.508zM97.077 51.17c.1.004.2.004.3 0 .088-.009.173-.023.257-.045.079-.017.156-.04.231-.067.07-.027.141-.06.215-.091v-.835h-.641a.117.117 0 01-.11-.06.079.079 0 01-.009-.037v-.285h1.244v1.422a2.375 2.375 0 01-1.077.38 4.569 4.569 0 01-.468.023 2.316 2.316 0 01-.808-.138 1.946 1.946 0 01-.64-.388 1.79 1.79 0 01-.414-.588 1.956 1.956 0 01-.147-.77 2.03 2.03 0 01.144-.776c.092-.22.233-.42.413-.588a1.92 1.92 0 01.641-.385c.275-.095.566-.142.859-.139.15 0 .298.011.446.033.13.02.258.05.38.094.113.038.22.088.321.147.099.058.192.123.28.194l-.155.23a.138.138 0 01-.052.05.154.154 0 01-.073.02.202.202 0 01-.099-.03 1.946 1.946 0 01-.157-.088 1.384 1.384 0 00-.215-.1 1.931 1.931 0 00-.295-.082 2.319 2.319 0 00-.407-.032 1.793 1.793 0 00-.618.102 1.341 1.341 0 00-.471.294c-.133.134-.235.29-.298.462a1.838 1.838 0 000 1.237c.07.175.179.334.32.468.132.127.291.227.468.294.204.064.42.09.635.073zM102.185 51.11h1.75v.424h-2.285V47.82h.548l-.013 3.29zM105.756 51.534h-.548V47.82h.548v3.713zM107.794 47.839c.032.017.061.04.083.067l2.343 2.799a.974.974 0 010-.132v-2.767h.478v3.728h-.276a.248.248 0 01-.119-.02.315.315 0 01-.086-.071l-2.34-2.796v2.887h-.458v-3.713h.285a.24.24 0 01.09.018zM114.732 47.821v.409h-1.942v1.226h1.574v.394h-1.574v1.267h1.942v.408h-2.506v-3.704h2.506zM57.303 24.893l24.335 6.338v22.208l-24.335-6.335v-22.21zM55.743 23v25.183l27.453 7.152v-25.18L55.743 23z" fill="#AFB1B8"/><path d="M70.457 67.025L43 59.867v-25.18l27.457 7.155v25.183z" fill="#AFB1B8"/><path d="M56.198 24.608l24.018 6.258L70 40.237l-24.02-6.26 10.217-9.37zM55.743 23L43 34.688l27.457 7.154 12.739-11.687L55.743 23zM72.001 65.608l11.195-10.27-11.195-2.919v13.19z" fill="#AFB1B8"/></svg>
